material/.icons/material/roman-numeral-7.svg

<svg xmlns="http://www.w3.org/2000/svg" viewBox="0 0 24 24"><path d="M4 7l2 10h2l2-10H8l-1 5-1-5H4m11 0v2h-1v6h1v2h-4v-2h1V9h-1V7h4m5 0v2h-1v6h1v2h-4v-2h1V9h-1V7h4z"/></svg>

<?xml version="1.0" encoding="UTF-8"?><!DOCTYPE svg PUBLIC "-//W3C//DTD SVG 1.1//EN" "http://www.w3.org/Graphics/SVG/1.1/DTD/svg11.dtd"><svg xmlns="http://www.w3.org/2000/svg" xmlns:xlink="http://www.w3.org/1999/xlink" version="1.1" id="mdi-roman-numeral-7" width="24" height="24" viewBox="0 0 24 24"><path d="M4 7L6 17H8L10 7H8L7 12L6 7H4M15 7V9H14V15H15V17H11V15H12V9H11V7H15M20 7V9H19V15H20V17H16V15H17V9H16V7H20Z" /></svg>
